resources/icons/avro.svg

<?xml version="1.0" encoding="UTF-8" standalone="no"?>
<svg
   xmlns:dc="http://purl.org/dc/elements/1.1/"
   xmlns:cc="http://creativecommons.org/ns#"
   xmlns:rdf="http://www.w3.org/1999/02/22-rdf-syntax-ns#"
   xmlns:svg="http://www.w3.org/2000/svg"
   xmlns="http://www.w3.org/2000/svg"
   xmlns:sodipodi="http://sodipodi.sourceforge.net/DTD/sodipodi-0.dtd"
   xmlns:inkscape="http://www.inkscape.org/namespaces/inkscape"
   width="16"
   height="16"
   viewBox="0 0 16 16"
   version="1.1"
   id="svg12"
   sodipodi:docname="avro.svg"
   inkscape:version="0.92.4 (5da689c313, 2019-01-14)">
  <metadata
     id="metadata18">
    <rdf:RDF>
      <cc:Work
         rdf:about="">
        <dc:format>image/svg+xml</dc:format>
        <dc:type
           rdf:resource="http://purl.org/dc/dcmitype/StillImage" />
      </cc:Work>
    </rdf:RDF>
  </metadata>
  <defs
     id="defs16" />
  <sodipodi:namedview
     pagecolor="#ffffff"
     bordercolor="#666666"
     borderopacity="1"
     objecttolerance="10"
     gridtolerance="10"
     guidetolerance="10"
     inkscape:pageopacity="0"
     inkscape:pageshadow="2"
     inkscape:window-width="1920"
     inkscape:window-height="1001"
     id="namedview14"
     showgrid="false"
     inkscape:zoom="14.75"
     inkscape:cx="8"
     inkscape:cy="8"
     inkscape:window-x="-9"
     inkscape:window-y="-9"
     inkscape:window-maximized="1"
     inkscape:current-layer="svg12" />
  <g
     fill="none"
     fill-rule="evenodd"
     id="g10">
    <path
       fill="#231F20"
       fill-opacity=".7"
       d="M8.416 13.8965C8.416 13.7395 8.437 13.3185 8.437 13.1395 8.437 12.3195 8.127 11.9835 7.269 11.9835L7 11.9835 7 11.0155 7.269 11.0155C8.127 11.0155 8.437 10.6685 8.437 9.8485 8.437 9.6695 8.416 9.2505 8.416 9.0915 8.416 8.0195 8.882 7.3465 10.765 7.0005L10.981 7.8405C9.74 8.1885 9.575 8.5135 9.575 9.2815 9.575 9.4925 9.596 9.8385 9.596 10.0595 9.596 10.8795 9.203 11.2785 8.52 11.5005 9.213 11.7305 9.596 12.1205 9.596 12.9405 9.596 13.1615 9.575 13.5075 9.575 13.7185 9.575 14.4855 9.74 14.8115 10.981 15.1585L10.765 16.0005C8.882 15.6525 8.416 14.9795 8.416 13.8965M12.0186 15.1582C13.2596 14.8112 13.4246 14.4852 13.4246 13.7192 13.4246 13.5082 13.4046 13.1612 13.4046 12.9402 13.4046 12.1202 13.7966 11.7202 14.4796 11.5002 13.7876 11.2682 13.4046 10.8802 13.4046 10.0592 13.4046 9.8392 13.4246 9.4922 13.4246 9.2812 13.4246 8.5132 13.2596 8.1882 12.0186 7.8412L12.2356 7.0002C14.1186 7.3462 14.5836 8.0192 14.5836 9.0922 14.5836 9.2502 14.5626 9.6702 14.5626 9.8482 14.5626 10.6692 14.8726 11.0152 15.7316 11.0152L15.9996 11.0152 15.9996 11.9832 15.7316 11.9832C14.8726 11.9832 14.5626 12.3192 14.5626 13.1392 14.5626 13.3182 14.5836 13.7392 14.5836 13.8962 14.5836 14.9792 14.1186 15.6522 12.2356 16.0002L12.0186 15.1582z"
       id="path2" />
    <polygon
       fill="#9AA7B0"
       fill-opacity=".8"
       points="7 1 3 5 7 5"
       id="polygon4" />
    <path
       fill="#9AA7B0"
       fill-opacity=".8"
       d="M10.5957,12.9404 C10.5957,13.0624 10.5847,13.9504 10.5907,13.9754 C10.5907,13.9744 10.5927,13.9734 10.5927,13.9734 C10.6227,13.9734 11.4997,14.2654 11.4997,14.2654 C11.4997,14.2654 12.3717,13.9764 12.4247,13.9404 C12.4177,13.9274 12.4047,13.0624 12.4047,12.9404 C12.4047,12.4914 12.4937,11.9654 12.8087,11.5034 C12.5397,11.1134 12.4047,10.6304 12.4047,10.0594 C12.4047,9.9374 12.4147,9.0494 12.4087,9.0244 C12.4087,9.0254 12.4077,9.0254 12.4077,9.0254 C12.3767,9.0254 11.4997,8.7344 11.4997,8.7344 C11.4997,8.7344 10.6277,9.0234 10.5747,9.0584 C10.5817,9.0724 10.5957,9.9374 10.5957,10.0594 C10.5957,10.5084 10.5057,11.0334 10.1917,11.4964 C10.4597,11.8854 10.5957,12.3684 10.5957,12.9404"
       id="path6" />
    <path
       fill="#9AA7B0"
       fill-opacity=".8"
       d="M7.416,13.8965 C7.416,13.8125 7.435,13.0285 7.432,12.9905 C7.392,12.9865 6,12.9835 6,12.9835 L6,10.0155 C6,10.0155 7.391,10.0125 7.431,10.0075 C7.435,9.9685 7.416,9.1765 7.416,9.0915 C7.416,6.8825 9.108,6.2885 10.584,6.0165 L11.5,5.8475 L12.416,6.0165 C12.608,6.0515 12.805,6.0935 13,6.1425 L13,1.0005 L8,1.0005 L8,6.0005 L3,6.0005 L3,15.0005 L7.609,15.0005 C7.496,14.6815 7.416,14.3285 7.416,13.8965"
       id="path8" />
  </g>
  <path
     style="fill:#5599ff;fill-opacity:1;stroke-width:0.06779661"
     d="m 12.240301,15.89281 c -0.01662,-0.04918 -0.06459,-0.223453 -0.10659,-0.387272 -0.07865,-0.306741 -0.03085,-0.410332 0.190577,-0.412975 0.157147,-0.0019 0.723085,-0.322876 0.896051,-0.508241 0.159761,-0.171214 0.171633,-0.236795 0.206784,-1.142304 0.04918,-1.266993 0.179156,-1.538562 0.876716,-1.831864 l 0.21136,-0.08887 -0.388353,-0.231829 C 13.549008,10.944515 13.469039,10.745584 13.425119,9.5438453 L 13.389617,8.5724364 13.14374,8.3471068 C 13.008508,8.2231755 12.711098,8.0536793 12.48283,7.9704485 12.254562,7.8872178 12.067797,7.8062091 12.067797,7.7904291 c 0,-0.092059 0.161358,-0.6732936 0.198608,-0.715413 0.05656,-0.063949 0.953448,0.1823083 1.290797,0.3544109 0.399639,0.2038806 0.656519,0.4519619 0.822041,0.793883 0.131868,0.2724032 0.154096,0.4354669 0.164172,1.2043565 0.0127,0.9694045 0.07102,1.1815865 0.389519,1.4173065 0.12902,0.09549 0.323853,0.147228 0.627118,0.166538 L 16,11.039525 v 0.45878 0.45878 l -0.439948,0.02801 c -0.488399,0.0311 -0.750308,0.174421 -0.908316,0.49705 -0.06252,0.127663 -0.09928,0.489062 -0.109703,1.078648 -0.0086,0.487663 -0.05097,0.974543 -0.0941,1.081956 -0.263098,0.655165 -0.716869,0.943332 -2.058433,1.307207 -0.06544,0.01775 -0.132576,-0.008 -0.149196,-0.05715 z"
     id="path20"
     inkscape:connector-curvature="0" />
  <path
     style="fill:#5599ff;fill-opacity:1;stroke-width:0.06779661"
     d="M 10.305085,15.870694 C 9.4569344,15.663953 8.9042112,15.32623 8.6628496,14.867259 8.5358169,14.625695 8.5076487,14.435549 8.4751178,13.6 8.4438391,12.796611 8.4129581,12.57688 8.3061467,12.397706 8.138332,12.116199 7.8314681,11.972881 7.3965336,11.972881 H 7.0508475 v -0.474576 -0.474576 l 0.3559322,-2.51e-4 C 7.8093236,11.023193 8.1250254,10.867374 8.3171487,10.574156 8.4139821,10.42637 8.4458077,10.191169 8.4758332,9.4014281 8.5080077,8.5551667 8.5351272,8.3722111 8.6650248,8.12509 8.903959,7.6705346 9.6955858,7.2271029 10.548566,7.07002 c 0.204298,-0.037623 0.211563,-0.030015 0.288135,0.3017128 0.0432,0.1871674 0.07855,0.3643997 0.07855,0.3938468 0,0.029447 -0.179265,0.1189037 -0.398367,0.1987923 -0.8267814,0.3014596 -0.9569023,0.5299789 -0.9590539,1.684298 -0.00118,0.6331241 -0.027771,0.8566621 -0.1282138,1.0778441 -0.1288371,0.283708 -0.4584939,0.582895 -0.734704,0.666796 -0.2187007,0.06643 -0.1896126,0.135482 0.1149228,0.272809 0.5920176,0.266962 0.7494839,0.623416 0.7494839,1.696593 0,1.137478 0.1326444,1.368745 0.957565,1.669526 0.219102,0.07989 0.398367,0.169345 0.398367,0.198793 0,0.134891 -0.163145,0.741236 -0.198084,0.736202 -0.02156,-0.0031 -0.207001,-0.04655 -0.412085,-0.09654 z"
     id="path22"
     inkscape:connector-curvature="0" />
</svg>

<svg xmlns="http://www.w3.org/2000/svg" width="16" height="16" viewBox="0 0 16 16"><g fill="none" fill-rule="evenodd"><path fill="#231F20" fill-opacity=".7" d="M8.416 13.896c0-.157.021-.578.021-.757 0-.82-.31-1.155-1.168-1.155H7v-.969h.269c.858 0 1.168-.347 1.168-1.167 0-.179-.021-.598-.021-.757 0-1.071.466-1.744 2.349-2.09l.216.84c-1.241.347-1.406.673-1.406 1.44 0 .211.021.557.021.778 0 .82-.393 1.22-1.076 1.442.693.23 1.076.62 1.076 1.44 0 .22-.021.566-.021.777 0 .768.165 1.094 1.406 1.44l-.216.842c-1.883-.348-2.349-1.02-2.349-2.104m3.603 1.262c1.24-.347 1.406-.673 1.406-1.439 0-.21-.02-.558-.02-.779 0-.82.392-1.22 1.075-1.44-.692-.232-1.075-.62-1.075-1.44 0-.22.02-.568.02-.779 0-.768-.165-1.093-1.406-1.44l.217-.84c1.883.345 2.348 1.018 2.348 2.091 0 .158-.021.578-.021.756 0 .821.31 1.167 1.169 1.167H16v.968h-.268c-.86 0-1.17.336-1.17 1.156 0 .18.022.6.022.757 0 1.083-.465 1.756-2.348 2.104l-.217-.842z"/><path fill="#9AA7B0" fill-opacity=".8" d="M7 1L3 5h4zm3.596 11.94c0 .122-.011 1.01-.005 1.035l.002-.002c.03 0 .907.292.907.292s.872-.289.925-.325c-.007-.013-.02-.878-.02-1 0-.449.089-.975.404-1.437-.27-.39-.404-.873-.404-1.444 0-.122.01-1.01.004-1.035l-.001.001c-.031 0-.908-.29-.908-.29s-.872.288-.925.323c.007.014.02.88.02 1.001 0 .45-.09.974-.403 1.437.268.39.404.872.404 1.444"/><path fill="#9AA7B0" fill-opacity=".8" d="M7.416 13.896c0-.084.019-.868.016-.905-.04-.005-1.432-.008-1.432-.008v-2.968s1.391-.003 1.431-.008c.004-.038-.015-.83-.015-.915 0-2.21 1.692-2.804 3.168-3.076l.916-.168.916.168c.192.035.389.077.584.127V1H8v5H3v9h4.609a3.214 3.214 0 01-.193-1.104"/></g><path d="M12.24 15.893a8.605 8.605 0 01-.106-.387c-.079-.307-.031-.41.19-.413.157-.002.723-.323.896-.509.16-.17.172-.236.207-1.142.05-1.267.18-1.539.877-1.832l.211-.089-.388-.232c-.578-.344-.658-.543-.702-1.745l-.035-.972-.246-.225a2.376 2.376 0 00-.661-.377c-.228-.083-.415-.164-.415-.18 0-.092.161-.673.198-.715.057-.064.954.182 1.291.354.4.204.657.452.822.794.132.273.154.436.164 1.205.013.97.071 1.181.39 1.417.129.095.324.147.627.167l.44.028v.918l-.44.027c-.488.031-.75.175-.908.497-.063.128-.1.49-.11 1.079-.009.487-.05.974-.094 1.082-.263.655-.717.943-2.058 1.307-.066.018-.133-.008-.15-.057zm-1.935-.023c-.848-.206-1.4-.544-1.642-1.003-.127-.241-.155-.431-.188-1.267-.031-.803-.062-1.023-.169-1.202-.168-.282-.475-.425-.91-.425h-.345v-.949h.356c.402 0 .718-.157.91-.45.097-.148.129-.383.159-1.173.032-.846.06-1.029.189-1.276.239-.454 1.03-.898 1.884-1.055.204-.038.211-.03.288.302.043.187.078.364.078.394 0 .029-.179.118-.398.198-.827.302-.957.53-.96 1.685 0 .633-.027.856-.127 1.078-.13.283-.459.582-.735.666-.219.067-.19.136.115.273.592.267.75.624.75 1.697 0 1.137.132 1.368.957 1.67.219.08.398.169.398.198 0 .135-.163.741-.198.736a13.971 13.971 0 01-.412-.096z" fill="#59f"/></svg>
